X: 33614
T: Rakish Paddy
R: reel
M: 4/4
K: Dmixolydian
c2 cB c2 (3A_B=B|cBAG EG ~G2|Add^c defe|dcAG FGAB|
c2 cB c2 AB|cBAG EG ~G2|DEFG ABcA|1 dcAG FGAB:|2 dcAG FD D2||
eg ~g2 ag ~g2|eg ~g2 ed^cd|ea ~a2 ba ~a2|ea ~a2 ed^cd|
eg ~g2 ag ~g2|f2 fe defg|afge fde^c|1 dcAG FD D2:|2 dcAG FGAB||

